docs/.gitbook/assets/icon-bike-16@light.svg

<svg width="32" height="32" viewBox="0 0 16 16" fill="none" xmlns="http://www.w3.org/2000/svg">
<rect x="0" y="0" width="16" height="16" fill="#fff"/>
<path fill-rule="evenodd" clip-rule="evenodd" d="M10.17 3.27451C10.3124 3.10074 10.5253 3 10.75 3H13.25C13.6642 3 14 3.33579 14 3.75C14 4.16421 13.6642 4.5 13.25 4.5H11.6649L12.5759 9.05522C13.9572 9.3238 15 10.5401 15 12C15 13.6569 13.6569 15 12 15C10.3431 15 9 13.6569 9 12C9 10.6697 9.86592 9.54158 11.0649 9.14861L10.8007 7.82797L6.76905 8.88894L6.22158 9.98389C6.70525 10.5165 7 11.2238 7 12C7 13.6569 5.65685 15 4 15C2.34315 15 1 13.6569 1 12C1 10.3431 2.34315 9 4 9C4.33511 9 4.65739 9.05495 4.95832 9.15632L5.35058 8.37178L3.66598 6.5H2.75C2.33579 6.5 2 6.16421 2 5.75C2 5.33579 2.33579 5 2.75 5H4H5.25C5.66421 5 6 5.33579 6 5.75C6 6.03612 5.83978 6.28482 5.60417 6.41127L6.50148 7.40829L10.506 6.35446L10.0146 3.89709C9.9705 3.67676 10.0275 3.44827 10.17 3.27451ZM4.27399 10.525C4.18516 10.5086 4.09358 10.5 4 10.5C3.17157 10.5 2.5 11.1716 2.5 12C2.5 12.8284 3.17157 13.5 4 13.5C4.82843 13.5 5.5 12.8284 5.5 12C5.5 11.8465 5.47694 11.6983 5.43409 11.5589L5.42082 11.5854C5.23558 11.9559 4.78507 12.1061 4.41459 11.9208C4.04411 11.7356 3.89394 11.2851 4.07918 10.9146L4.27399 10.525ZM11.3634 10.6414C10.8533 10.8808 10.5 11.3992 10.5 12C10.5 12.8284 11.1716 13.5 12 13.5C12.8284 13.5 13.5 12.8284 13.5 12C13.5 11.5226 13.2769 11.0972 12.9294 10.8225L12.9854 11.1029C13.0667 11.5091 12.8033 11.9042 12.3971 11.9854C11.9909 12.0667 11.5958 11.8033 11.5146 11.3971L11.3634 10.6414Z" fill="#000"/>
</svg>

<svg xmlns="http://www.w3.org/2000/svg" width="32" height="32" fill="none" viewBox="0 0 16 16"><path fill="#fff" d="M0 0h16v16H0z"/><path fill="#000" fill-rule="evenodd" d="M10.17 3.275A.75.75 0 0 1 10.75 3h2.5a.75.75 0 0 1 0 1.5h-1.585l.91 4.555a3.001 3.001 0 1 1-1.51.094L10.8 7.828l-4.032 1.06-.547 1.096a3 3 0 1 1-1.263-.828l.392-.784L3.666 6.5H2.75a.75.75 0 0 1 0-1.5h2.5a.75.75 0 0 1 .354 1.411l.897.997 4.005-1.054-.491-2.457a.75.75 0 0 1 .155-.622m-5.896 7.25a1.5 1.5 0 1 0 1.16 1.034l-.013.026a.75.75 0 1 1-1.342-.67zm7.09.116a1.5 1.5 0 1 0 1.565.181l.056.28a.75.75 0 1 1-1.47.295z" clip-rule="evenodd"/></svg>
